32x32/apps/zbstudio.svg

<svg width="32" height="32" version="1.1" xmlns="http://www.w3.org/2000/svg">
 <path d="m3 9v11" style="fill:none;stroke-linecap:round;stroke-linejoin:round;stroke-width:2;stroke:#515153"/>
 <path d="m29 9v11" style="fill:none;stroke-linecap:round;stroke-linejoin:round;stroke-width:2;stroke:#515153"/>
 <circle cx="5" cy="22" r="3" style="opacity:.2"/>
 <circle cx="5" cy="21" r="3" style="fill:#6b6c6e"/>
 <circle cx="27" cy="22" r="3" style="opacity:.2"/>
 <circle cx="27" cy="21" r="3" style="fill:#6b6c6e"/>
 <path d="M 5 18 A 3 3 0 0 0 2 21 A 3 3 0 0 0 2.0429688 21.513672 A 3 3 0 0 1 5 19 A 3 3 0 0 1 7.9570312 21.486328 A 3 3 0 0 0 8 21 A 3 3 0 0 0 5 18 z " style="fill:#f4f4f7;opacity:.1"/>
 <path d="m5 18c0-2 1-3 3-3h16c2 0 3 1 3 3v9s-3 2-11 2-11-2-11-2z" style="opacity:.2"/>
 <rect x="10" y="4" width="12" height="12" ry="2" style="fill:#6b6c6e"/>
 <rect x="12" y="7" width="8" height="8" style="fill:#17191e"/>
 <circle cx="16" cy="6" r="1" style="fill:#f4f4f7"/>
 <circle cx="16" cy="11" r="3" style="fill:#d56d36"/>
 <circle cx="16" cy="11" r="1" style="fill:#f4f4f7"/>
 <path d="M 27 18 A 3 3 0 0 0 24 21 A 3 3 0 0 0 24.042969 21.513672 A 3 3 0 0 1 27 19 A 3 3 0 0 1 29.957031 21.486328 A 3 3 0 0 0 30 21 A 3 3 0 0 0 27 18 z " style="fill:#f4f4f7;opacity:.1"/>
 <path d="m5 17c0-2 1-3 3-3h16c2 0 3 1 3 3v9s-3 2-11 2-11-2-11-2z" style="fill:#8a8a8c"/>
 <circle cx="11.5" cy="22.5" r="2.5" style="opacity:.2"/>
 <circle cx="11.5" cy="21.5" r="2.5" style="fill:#f4f4f7"/>
 <circle cx="20.5" cy="22.5" r="2.5" style="opacity:.2"/>
 <circle cx="20.5" cy="21.5" r="2.5" style="fill:#f4f4f7"/>
 <path d="M 2.984375 7.9863281 A 1.0001 1.0001 0 0 0 2 9 L 2 10 A 1.0001 1.0001 0 0 1 2.984375 8.9863281 A 1.0001 1.0001 0 0 1 4 10 L 4 9 A 1.0001 1.0001 0 0 0 2.984375 7.9863281 z " style="fill:#f4f4f7;opacity:.1"/>
 <path d="M 28.984375 7.9863281 A 1.0001 1.0001 0 0 0 28 9 L 28 10 A 1.0001 1.0001 0 0 1 28.984375 8.9863281 A 1.0001 1.0001 0 0 1 30 10 L 30 9 A 1.0001 1.0001 0 0 0 28.984375 7.9863281 z " style="fill:#f4f4f7;opacity:.1"/>
 <path d="m12 4c-1.108 0-2 0.892-2 2v1c0-1.108 0.892-2 2-2h8c1.108 0 2 0.892 2 2v-1c0-1.108-0.892-2-2-2h-8z" style="fill:#f4f4f7;opacity:.1"/>
 <path d="m8 14c-2 0-3 1-3 3v1c0-2 1-3 3-3h16c2 0 3 1 3 3v-1c0-2-1-3-3-3h-16z" style="fill:#f4f4f7;opacity:.2"/>
</svg>

<svg width="32" height="32" xmlns="http://www.w3.org/2000/svg"><path d="M3 9v11M29 9v11" style="fill:none;stroke-linecap:round;stroke-linejoin:round;stroke-width:2;stroke:#515153"/><circle cx="5" cy="22" r="3" style="opacity:.2"/><circle cx="5" cy="21" r="3" style="fill:#6b6c6e"/><circle cx="27" cy="22" r="3" style="opacity:.2"/><circle cx="27" cy="21" r="3" style="fill:#6b6c6e"/><path d="M5 18a3 3 0 0 0-3 3 3 3 0 0 0 .043.514A3 3 0 0 1 5 19a3 3 0 0 1 2.957 2.486A3 3 0 0 0 8 21a3 3 0 0 0-3-3z" style="fill:#f4f4f7;opacity:.1"/><path d="M5 18c0-2 1-3 3-3h16c2 0 3 1 3 3v9s-3 2-11 2-11-2-11-2z" style="opacity:.2"/><rect x="10" y="4" width="12" height="12" ry="2" style="fill:#6b6c6e"/><path style="fill:#17191e" d="M12 7h8v8h-8z"/><circle cx="16" cy="6" r="1" style="fill:#f4f4f7"/><circle cx="16" cy="11" r="3" style="fill:#d56d36"/><circle cx="16" cy="11" r="1" style="fill:#f4f4f7"/><path d="M27 18a3 3 0 0 0-3 3 3 3 0 0 0 .043.514A3 3 0 0 1 27 19a3 3 0 0 1 2.957 2.486A3 3 0 0 0 30 21a3 3 0 0 0-3-3z" style="fill:#f4f4f7;opacity:.1"/><path d="M5 17c0-2 1-3 3-3h16c2 0 3 1 3 3v9s-3 2-11 2-11-2-11-2z" style="fill:#8a8a8c"/><circle cx="11.5" cy="22.5" r="2.5" style="opacity:.2"/><circle cx="11.5" cy="21.5" r="2.5" style="fill:#f4f4f7"/><circle cx="20.5" cy="22.5" r="2.5" style="opacity:.2"/><circle cx="20.5" cy="21.5" r="2.5" style="fill:#f4f4f7"/><path d="M2.984 7.986A1 1 0 0 0 2 9v1a1 1 0 0 1 .984-1.014A1 1 0 0 1 4 10V9a1 1 0 0 0-1.016-1.014zM28.984 7.986A1 1 0 0 0 28 9v1a1 1 0 0 1 .984-1.014A1 1 0 0 1 30 10V9a1 1 0 0 0-1.016-1.014zM12 4c-1.108 0-2 .892-2 2v1c0-1.108.892-2 2-2h8c1.108 0 2 .892 2 2V6c0-1.108-.892-2-2-2h-8z" style="fill:#f4f4f7;opacity:.1"/><path d="M8 14c-2 0-3 1-3 3v1c0-2 1-3 3-3h16c2 0 3 1 3 3v-1c0-2-1-3-3-3H8z" style="fill:#f4f4f7;opacity:.2"/></svg>
